Sources/FrostedUI/Resources/Icons.xcassets/profileCircle16.imageset/profile-circle-16.svg

<svg width="16" height="16" viewBox="0 0 16 16" fill="none" xmlns="http://www.w3.org/2000/svg" data-fui-icon="true">
  <g clip-path="url(#clip0_882_1417)">
    <path
      d="M8 0.5C12.1421 0.5 15.5 3.85786 15.5 8C15.5 10.2615 14.4971 12.287 12.9141 13.6621C12.9032 13.6727 12.8934 13.6844 12.8818 13.6943C12.8559 13.7166 12.828 13.7369 12.8018 13.7588C12.7808 13.7763 12.7604 13.7943 12.7393 13.8115C12.671 13.8672 12.6015 13.9213 12.5312 13.9746C12.5035 13.9957 12.4754 14.0164 12.4473 14.0371C12.3859 14.0824 12.3236 14.1265 12.2607 14.1699C12.2238 14.1955 12.1869 14.2212 12.1494 14.2461C12.0924 14.2841 12.0347 14.321 11.9766 14.3574C11.9379 14.3816 11.8995 14.4062 11.8604 14.4297C11.7989 14.4667 11.7364 14.5019 11.6738 14.5371C11.6338 14.5596 11.5942 14.5827 11.5537 14.6045C11.4541 14.6582 11.3542 14.7115 11.252 14.7607C11.1942 14.7886 11.1347 14.8125 11.0762 14.8389C11.0297 14.8598 10.9835 14.8814 10.9365 14.9014C10.9026 14.9158 10.8682 14.9294 10.834 14.9434C10.7595 14.9738 10.685 15.0042 10.6094 15.0322C10.5613 15.0501 10.5125 15.0661 10.4639 15.083C10.4065 15.103 10.349 15.123 10.291 15.1416C10.2376 15.1587 10.1838 15.1745 10.1299 15.1904C10.0648 15.2097 9.99945 15.2286 9.93359 15.2461C9.88595 15.2588 9.83805 15.2705 9.79004 15.2822C9.72939 15.2971 9.66864 15.3118 9.60742 15.3252C9.54776 15.3382 9.48792 15.3507 9.42773 15.3623C9.3752 15.3724 9.32244 15.3816 9.26953 15.3906C9.20466 15.4017 9.13965 15.4125 9.07422 15.4219C9.00228 15.4322 8.93 15.4409 8.85742 15.4492C8.81971 15.4535 8.78202 15.4582 8.74414 15.4619C8.64957 15.4712 8.55454 15.4786 8.45898 15.4844C8.42938 15.4862 8.39981 15.4888 8.37012 15.4902C8.24748 15.4962 8.1241 15.5 8 15.5C7.87557 15.5 7.75187 15.4962 7.62891 15.4902C7.59922 15.4888 7.56964 15.4862 7.54004 15.4844C7.44448 15.4786 7.34945 15.4713 7.25488 15.4619C7.21701 15.4582 7.17931 15.4535 7.1416 15.4492C7.06903 15.4409 6.99674 15.4322 6.9248 15.4219C6.85938 15.4125 6.79436 15.4017 6.72949 15.3906C6.67658 15.3816 6.62382 15.3724 6.57129 15.3623C6.51111 15.3507 6.45126 15.3382 6.3916 15.3252C6.33038 15.3118 6.26963 15.2971 6.20898 15.2822C6.16098 15.2705 6.11307 15.2588 6.06543 15.2461C5.99958 15.2286 5.93427 15.2097 5.86914 15.1904C5.81524 15.1745 5.7614 15.1587 5.70801 15.1416C5.64999 15.123 5.59255 15.103 5.53516 15.083C5.48658 15.0661 5.43777 15.0501 5.38965 15.0322C5.31404 15.0041 5.23948 14.9738 5.16504 14.9434C5.13082 14.9294 5.09646 14.9158 5.0625 14.9014C4.95666 14.8563 4.85132 14.8105 4.74805 14.7607C4.59588 14.6874 4.448 14.6065 4.30176 14.5234C4.24719 14.4924 4.19238 14.462 4.13867 14.4297C4.09956 14.4062 4.0611 14.3816 4.02246 14.3574C3.96534 14.3216 3.90861 14.2853 3.85254 14.248C3.80883 14.219 3.76571 14.1891 3.72266 14.1592C3.66975 14.1224 3.61733 14.085 3.56543 14.0469C3.53015 14.021 3.49476 13.9953 3.45996 13.9688C3.39817 13.9217 3.33761 13.8731 3.27734 13.8242C3.24572 13.7985 3.21381 13.7732 3.18262 13.7471C3.16154 13.7294 3.14002 13.7122 3.11914 13.6943C3.10889 13.6855 3.09955 13.6753 3.08984 13.666C1.50439 12.2909 0.5 10.2635 0.5 8C0.5 3.85786 3.85786 0.5 8 0.5ZM8 12.25C6.85642 12.25 5.78901 12.5702 4.87988 13.125C4.94756 13.1663 5.01654 13.2055 5.08594 13.2441C5.10555 13.2551 5.12479 13.2666 5.14453 13.2773C5.22812 13.3227 5.31252 13.3668 5.39844 13.4082C5.48674 13.4508 5.57635 13.491 5.66699 13.5293C5.74576 13.5626 5.8258 13.5931 5.90625 13.623C5.95021 13.6394 5.99463 13.6546 6.03906 13.6699C6.08067 13.6843 6.12205 13.6994 6.16406 13.7129C6.21195 13.7283 6.26019 13.7426 6.30859 13.7568C6.35205 13.7696 6.39559 13.7822 6.43945 13.7939C6.47997 13.8048 6.52067 13.8151 6.56152 13.8252C6.62397 13.8406 6.6868 13.8548 6.75 13.8682C6.77372 13.8732 6.79747 13.8781 6.82129 13.8828C6.89505 13.8975 6.96923 13.9109 7.04395 13.9229C7.06507 13.9262 7.08622 13.9295 7.10742 13.9326C7.18025 13.9435 7.25348 13.9527 7.32715 13.9609C7.35545 13.9641 7.38369 13.9679 7.41211 13.9707C7.49303 13.9786 7.57441 13.9846 7.65625 13.9893C7.66928 13.99 7.68226 13.9915 7.69531 13.9922C7.79623 13.9972 7.89781 14 8 14C8.11506 14 8.22931 13.9956 8.34277 13.9893C8.42462 13.9847 8.50599 13.9786 8.58691 13.9707C8.61533 13.9679 8.64358 13.9641 8.67188 13.9609C8.74554 13.9527 8.81877 13.9435 8.8916 13.9326C8.9128 13.9295 8.93395 13.9262 8.95508 13.9229C9.0298 13.9109 9.10397 13.8975 9.17773 13.8828C9.20156 13.8781 9.22531 13.8732 9.24902 13.8682C9.31223 13.8548 9.37505 13.8405 9.4375 13.8252C9.47835 13.8151 9.51905 13.8048 9.55957 13.7939C9.60344 13.7822 9.64697 13.7696 9.69043 13.7568C9.73884 13.7426 9.78707 13.7283 9.83496 13.7129C9.87698 13.6994 9.91835 13.6843 9.95996 13.6699C10.0044 13.6546 10.0488 13.6394 10.0928 13.623C10.1735 13.593 10.254 13.5627 10.333 13.5293C10.335 13.5284 10.3369 13.5272 10.3389 13.5264C10.4275 13.4888 10.5152 13.4498 10.6016 13.4082C10.7075 13.3571 10.8107 13.3011 10.9131 13.2441C10.9825 13.2055 11.0514 13.1663 11.1191 13.125C10.2102 12.5705 9.14325 12.25 8 12.25ZM8 2C4.68629 2 2 4.68629 2 8C2 9.60393 2.63102 11.0593 3.65625 12.1357C4.88188 11.2636 6.38162 10.75 8 10.75C9.61836 10.75 11.1181 11.2637 12.3438 12.1357C13.369 11.0593 14 9.60393 14 8C14 4.68629 11.3137 2 8 2ZM8 4C9.65685 4 11 5.34315 11 7C11 8.65685 9.65685 10 8 10C6.34315 10 5 8.65685 5 7C5 5.34315 6.34315 4 8 4ZM8 5.5C7.17157 5.5 6.5 6.17157 6.5 7C6.5 7.82843 7.17157 8.5 8 8.5C8.82843 8.5 9.5 7.82843 9.5 7C9.5 6.17157 8.82843 5.5 8 5.5Z"
      fill="currentColor"
    />
  </g>
  <defs>
    <clipPath id="clip0_882_1417"><path fill="currentColor" d="M0 0H16V16H0z" /></clipPath>
  </defs>
</svg>

<svg xmlns="http://www.w3.org/2000/svg" width="16" height="16" fill="none" data-fui-icon="true" viewBox="0 0 16 16"><g clip-path="url(#a)"><path fill="currentColor" d="M8 .5A7.5 7.5 0 0 1 15.5 8a7.48 7.48 0 0 1-2.586 5.662q-.014.016-.032.032-.04.033-.08.065l-.063.053a8 8 0 0 1-.478.358l-.112.076-.172.111q-.06.038-.117.073l-.186.107q-.06.035-.12.067-.15.081-.302.157-.087.04-.176.078l-.14.062q-.05.022-.102.042-.112.046-.225.09l-.145.05-.173.059q-.08.026-.161.048a7 7 0 0 1-1.273.26l-.113.012q-.142.015-.285.022l-.089.006a8 8 0 0 1-.741 0q-.045-.002-.089-.006a7 7 0 0 1-.285-.022l-.113-.013a8 8 0 0 1-.57-.087 8 8 0 0 1-.703-.172q-.081-.023-.161-.048l-.173-.059-.145-.05-.225-.09q-.051-.02-.103-.042a7 7 0 0 1-.314-.14 8 8 0 0 1-.446-.238q-.083-.045-.163-.093l-.117-.073a7 7 0 0 1-.457-.31l-.105-.078-.183-.145q-.047-.037-.094-.077l-.064-.053-.03-.028A7.5 7.5 0 0 1 8 .5m0 11.75c-1.144 0-2.211.32-3.12.875q.102.06.206.12l.059.032a6 6 0 0 0 .522.252q.118.05.24.094l.132.047q.063.022.125.043a6 6 0 0 0 .657.17 6 6 0 0 0 .506.078l.085.01q.121.012.244.018l.04.003a6 6 0 0 0 .89-.021l.086-.01a6 6 0 0 0 1.163-.248l.125-.043q.066-.022.133-.047.12-.044.24-.094l.006-.003a6 6 0 0 0 .263-.118 6 6 0 0 0 .517-.283A5.97 5.97 0 0 0 8 12.25M8 2a6 6 0 0 0-4.344 10.136A7.47 7.47 0 0 1 8 10.75a7.47 7.47 0 0 1 4.344 1.386A6 6 0 0 0 8 2m0 2a3 3 0 1 1 0 6 3 3 0 0 1 0-6m0 1.5a1.5 1.5 0 1 0 0 3 1.5 1.5 0 0 0 0-3"/></g><defs><clipPath id="a"><path fill="currentColor" d="M0 0h16v16H0z"/></clipPath></defs></svg>
